icons/src/svg/chevron_down.svg

<svg width="32" height="32" viewBox="0 0 32 32" fill="none" xmlns="http://www.w3.org/2000/svg">
<path fill-rule="evenodd" clip-rule="evenodd" d="M4.27336 9.78313C4.66389 9.3926 5.29705 9.3926 5.68758 9.78313L15.5757 19.6713C15.81 19.9056 16.1899 19.9056 16.4242 19.6713L26.3124 9.78313C26.7029 9.3926 27.3361 9.39261 27.7266 9.78313C28.1171 10.1737 28.1171 10.8068 27.7266 11.1973L17.8385 21.0855C16.8231 22.1008 15.1769 22.1008 14.1615 21.0855L4.27336 11.1973C3.88284 10.8068 3.88284 10.1737 4.27336 9.78313Z" fill="#0D0F13"/>
</svg>

<svg fill="none" xmlns="http://www.w3.org/2000/svg" viewBox="0 0 32 32">
  <path fill-rule="evenodd" clip-rule="evenodd" d="M4.273 9.783a1 1 0 0 1 1.415 0l9.888 9.888a.6.6 0 0 0 .848 0l9.888-9.888a1 1 0 1 1 1.415 1.414l-9.889 9.889a2.6 2.6 0 0 1-3.677 0l-9.888-9.889a1 1 0 0 1 0-1.414Z" fill="currentColor"/>
</svg>
